X:1
T:O God, my heart is fixed, ’tis bent
T:O God, my heart is fixed, ’tis bent (John Broderip)
C:John Broderip
Z:Text: Nahum Tate/Nicholas Brady, on Ps. 57
%%score [ 1 2 3 4 ]
L:1/8
M:3/4
K:G
V:1 treble nm="[S]"
V:2 treble nm="[A]"
V:3 treble-8 transpose=-12 nm="[T]"
V:4 bass nm="[B]"
V:1
 D2 | (BA G2) F2 | G4 (A/B/c) | (BA G2) c2 | d4 (cB) | A4 A2 | (d2 D2) c2 | (B2 A2) e2 | %8
w: O|God, _ _ my|heart is _ _|fix’d, _ _ ’tis|bent, ’tis _|bent Its|thank- * ful,|thank- * ful|
w: Thy|prai- * * ses,|Lord, I _ _|will _ _ re-|sound, re- *|sound To|all, _ to|all _ the|
 (d2 c2) B2 | c2 (B2 A2) | G4 z2 | z6 | z6 | z6 | z6 | z6 | z6 | z6 | z6 | z6 | z4"^Cho[rus]" d2 | %21
w: tri- * bute|to pre- *|sent.||||||||||A-|
w: list- * ’ning|na- tions _|round.||||||||||Be|
 d4 d2 | d4 d2 | c4 B2 | A4 A2 | A4 B2 | c4 c2 | d4 e2 | e4 e2 | (e2 d2) d2 | c4 B2 | B4 (AG) | %32
w: wake, my|glo- ry,|harp and|lute, No|lon- ger|let your|strings be|mute; And|I, _ my|tune- ful|part to _|
w: thou, O|God, ex-|alt- ed|high; And,|as thy|glo- ry|fills the|sky, So|let _ it|be on|earth dis- *|
 F4 D2 | G4 B2 | G4 G2 | (G3 A) F2 | G4 |] %37
w: take, Will|with the|ear- ly|dawn _ a-|wake.|
w: played, Till|thou art|here, as|there, _ o-|beyed.|
V:2
 z2 | z6 | z6 | z6 | z6 | z6 | z6 | z6 | z6 | z6 | z4 B,2 | (GF E2) ^D2 | E4 (B,A,) | %13
w: ||||||||||And|with _ _ my|heart, my _|
w: ||||||||||Thy|mer- * * cy|high- est _|
 (G,2 B,2) E2 | (^DE F2) G2 | F4 F2 | (GF E2) A2 | D4 A,2 | (B,2 ^C2) D2 | (G2 F2) E2 | %20
w: voice _ I’ll|raise, _ _ I’ll|raise, To|thee, _ _ my|God, in|songs, _ in|songs _ of|
w: heav’n _ trans-|cends, _ _ trans-|cends; Thy|truth _ _ be-|yond, be-|yond _ the|clouds _ ex-|
 !fermata!D4 F2 | G4 G2 | (F2 G2) F2 | E4 D2 | D4 D2 | D4 E2 | E4 E2 | (A2 ^G2) G2 | A4 A2 | %29
w: praise. A-|wake, my|glo- * ry,|harp and|lute, No|lon- ger|let your|strings _ be|mute; And|
w: tends. Be|thou, O|God, _ ex-|alt- ed|high; And,|as thy|glo- ry|fills _ the|sky, So|
 F4 A2 | G4 G2 | (G2 F2) E2 | D4 A,2 | D4 D2 | (E2 D2) E2 | (D3 E) D2 | D4 |] %37
w: I, my|tune- ful|part _ to|take, Will|with the|ear- * ly|dawn _ a-|wake.|
w: let it|be on|earth _ dis-|played, Till|thou art|here, _ as|there, _ o-|beyed.|
V:3
 z2 | z4 D2 | (BA G2) F2 | G4 (AB/c/) | (BA G2) c2 | d4 z2 | z4 A2 | (d2 D2) c2 | (B2 A2) G2 | %9
w: |O|God, _ _ my|heart is _ _|fix’d, _ _ ’tis|bent|Its|thank- * ful|tri- * bute|
w: |Thy|prai- * * ses,|Lord, I _ _|will _ _ re-|sound|To|all _ the|list- * ’ning|
 C2 D4 | G4 z2 | z6 | z6 | z6 | z6 | z6 | z6 | z6 | z6 | z6 | z4 A2 | B4 d2 | (A2 B2) A2 | G4 G2 | %24
w: to pre-|sent.||||||||||A-|wake, my|glo- * ry,|harp and|
w: na- tions|round.||||||||||Be|thou, O|God, _ ex-|alt- ed|
 F4 F2 | F4 ^G2 | A4 A2 | (B3 c) (dB) | c4 c2 | d4 (dF) | G4 G2 | d4 (cB) | A4 F2 | G4 G2 | %34
w: lute, No|lon- ger|let your|strings _ be _|mute; And|I, my _|tune- ful|part to _|take, Will|with the|
w: high; And,|as thy|glo- ry|fills _ the _|sky, So|let it _|be on|earth dis- *|played, Till|thou art|
 (G2 F2) c2 | (B3 c) A2 | B4 |] %37
w: ear- * ly|dawn _ a-|wake.|
w: here, _ as|there, _ o-|beyed.|
V:4
 z2 | z6 | z6 | z6 | z6 | z6 | z6 | z6 | z6 | z6 | z6 | z4 B,,2 | (G,F, E,2) ^D,2 | %13
w: |||||||||||And|with _ _ my|
w: |||||||||||Thy|mer- * * cy|
 (E,3 F,) (G,A,) | B,4 E,2 | B,4 z2 | z4 A,2 | (B,A, G,2) A,2 | G,4 F,2 | (E,2 A,2) A,,2 | %20
w: heart, _ my _|voice I’ll|raise,|To|thee, _ _ my|God, in|songs _ of|
w: high- * est _|heav’n trans-|cends;|Thy|truth _ _ be-|yond the|clouds _ ex-|
 !fermata!D,4 D,2 | (G,3 A,) (B,C) | D4 D,2 | (E,3 F,) G,2 | D,4 D,2 | D,4 D,2 | C,4 C,2 | %27
w: praise. A-|wake, _ my _|glo- ry,|harp _ and|lute, No|lon- ger|let your|
w: tends. Be|thou, _ O _|God, ex-|alt- * ed|high; And,|as thy|glo- ry|
 B,,4 E,2 | A,,4 A,2 | D4 D,2 | (E,2 F,2) G,2 | %31
w: strings be|mute; And|I, my|tune- * ful|
w: fills the|sky, So|let it|be _ on|
"^Notes:Only verses 7-8 of the text (the first line of text underlaid in this edition) are given in the source: the subsequent versesof the psalm have here been added editorially.The alto and tenor parts are printed in the alto and tenor clefs respectively in the source." B,,4 C,2 | %32
w: part to|
w: earth dis-|
 D,4 D,2 | (B,,3 A,,) G,,2 | (E,2 B,,2) C,2 | D,4 D,2 | G,4 |] %37
w: take, Will|with _ the|ear- * ly|dawn a-|wake.|
w: played, Till|thou _ art|here, _ as|there, o-|beyed.|

